X:1
T:Come, Every Soul by Sin Oppressed
T:John Hart Stockton, 1869, & Ira Sankey, 1873
T:Come, Every Soul by Sin Oppressed
T:Public Domain
T:Public Domain
C:John Hart Stockton, 1869, & Ira Sankey, 1873
Z:Public Domain
%%score ( 1 2 ) ( 3 4 )
L:1/8
M:4/4
K:G
V:1 treble 
V:2 treble 
V:3 bass 
V:4 bass 
V:1
 [B,D]2 | [B,D]3 [CE] [B,D]2 [DG]2 | [GB]3 [GB] [DA]2 [DG]2 | [Gd]2 [Gd]2 [GB]2 G2 | [FA]6 [GB]2 | %5
w: 1.~Come,|ev- ery soul by|sin op- pressed; There’s|mer- cy with the|Lord, And|
w: 2.~For|Je- sus shed His|pre- cious blood Rich|bless- ings to be-|stow; Plunge|
w: 3.~Yes,|Je- sus is the|truth, the way, That|leads you in- to|rest; Be-|
w: 4.~Come,|then, and join this|ho- ly band, And|on to glo- ry|go To|
w: 5.~O|Je- sus, bless- èd|Je- sus, dear, I’m|com- ing now to|Thee; Since|
 [Gd]3 [Gd] [GB]2 [DG]2 | [EG]3 [EG] [CE]2 [B,D]2 | [B,D]2 [DG]2 [GB]2 [FA]2 | [DG]8 || %9
w: He will sure- ly|give you rest By|trust- ing in His|Word.|
w: now in- to the|crim- son flood That|wash- es white as|snow.|
w: lieve in Him with-|out de- lay And|you are full- y|blessed.|
w: dwell in that ce-|les- tial land Where|joys im- mor- tal|flow.|
w: Thou hast made the|way so clear And|full sal- va- tion|free.|
"^Refrain" [Gd]3 [GB] (BA) [DG]2 | [EG]3 [CE] [CE]2 [B,D]2 | D2 [DG]2 [GB]2 [DG]2 | [FA]8 | %13
w: ||||
w: ||||
w: ||||
w: ||||
w: ||||
 [Gd]3 [GB] (BA) [DG]2 | [EG]3 [CE] [CE]2 [B,D]2 | [B,D]2 [DG]2 [GB]2 [FA]2 | [DG]6 |] %17
w: ||||
w: ||||
w: ||||
w: ||||
w: ||||
V:2
 x2 | x8 | x8 | x8 | x8 | x8 | x8 | x8 | x8 || x8 | x8 | x8 | x8 | x4 G2 x2 | x8 | x8 | x6 |] %17
V:3
 G,2 | G,3 G, G,2 [G,B,]2 | [G,D]3 [G,D] [G,C]2 [G,B,]2 | [G,,B,]2 [G,,B,]2 [G,,D]2 [B,,D]2 | %4
w: ~|~ ~ ~ ~|~ ~ ~ ~|~ ~ ~ ~|
 [D,D]6 [G,D]2 | [G,B,]3 [G,B,] [G,D]2 [B,,D]2 | [C,C]3 [C,C] [C,G,]2 [G,,G,]2 | %7
w: ~ ~|~ ~ ~ ~|~ ~ ~ ~|
 [D,G,]2 [D,B,]2 [D,D]2 [D,C]2 | [G,B,]8 || [G,B,]3 [G,D] (DC) [G,B,]2 | %10
w: ~ On- ly trust|Him,|on- ly trust * Him,|
 [C,C]3 [C,G,] [G,,G,]2 [G,,G,]2 | [G,B,]2 [G,B,]2 [G,D]2 [G,B,]2 | [D,D]8 | %13
w: ly trust Him now;|He will save you,|He|
 [G,B,]3 [G,D] (DC) [G,B,]2 | [C,C]3 [C,G,] [G,,G,]2 [G,,G,]2 | [D,G,]2 [D,B,]2 [D,D]2 [D,C]2 | %16
w: will save you, * He|save you now. *||
 [G,B,]6 |] %17
w: |
V:4
 G,2 | G,3 G, G,2 x2 | x8 | x8 | x8 | x8 | x8 | x8 | x8 || x4 G,2 x2 | x8 | x8 | x8 | x4 G,2 x2 | %14
w: ~|~ ~ ~||||||||On-||||will|
 x8 | x8 | x6 |] %17
w: |||

